img/icons/icon_leaf.svg

<svg width="30" height="32" viewBox="0 0 30 32" fill="none" xmlns="http://www.w3.org/2000/svg">
<g clip-path="url(#clip0)">
<path d="M27.7754 2.767C27.6751 2.317 27.2963 2 26.8641 2C26.8623 2 26.8604 2 26.8585 2C21.9207 2.033 9.91319 2.916 5.06538 10.38C2.54725 14.258 2.33069 19.293 4.42132 25.345C4.43725 25.392 4.47007 25.424 4.49163 25.467C3.74444 27.44 3.45475 28.753 3.44725 28.79C3.3385 29.33 3.66194 29.862 4.16819 29.978C4.23382 29.993 4.29944 30 4.36507 30C4.79725 30 5.18632 29.679 5.281 29.21C5.30069 29.108 7.68944 18.837 16.1344 12.832C16.5657 12.526 16.6819 11.905 16.3941 11.445C16.1063 10.985 15.5251 10.86 15.0938 11.168C10.3051 14.573 7.35569 19.176 5.62132 22.824C4.38007 18.246 4.70538 14.447 6.60757 11.519C10.351 5.755 19.2301 4.365 24.5898 4.071C23.4366 5.872 22.1766 9.174 22.1766 15C22.1766 18.12 21.3469 20.522 19.7119 22.14C17.0907 24.731 12.8326 24.974 9.71819 24.724C9.20069 24.679 8.75163 25.095 8.71225 25.646C8.67288 26.196 9.06007 26.676 9.57569 26.718C10.1991 26.769 10.8648 26.8 11.5566 26.8C14.7273 26.8 18.4257 26.137 20.986 23.606C23.0204 21.595 24.0516 18.7 24.0516 15.001C24.0516 5.902 27.2673 3.905 27.2832 3.896C27.6732 3.687 27.8776 3.219 27.7754 2.767Z" fill="white"/>
</g>
<defs>
<clipPath id="clip0">
<rect width="30" height="32" fill="white"/>
</clipPath>
</defs>
</svg>

<svg width="30" height="32" fill="none" xmlns="http://www.w3.org/2000/svg"><g clip-path="url(#clip0)"><path d="M27.775 2.767c-.1-.45-.479-.767-.91-.767h-.006c-4.938.033-16.946.916-21.794 8.38-2.518 3.878-2.734 8.913-.644 14.965.016.047.05.079.07.122-.747 1.973-1.036 3.286-1.044 3.323-.109.54.215 1.072.721 1.188a.88.88 0 00.197.022c.432 0 .821-.321.916-.79.02-.102 2.408-10.373 10.853-16.378.432-.306.548-.927.26-1.387-.288-.46-.869-.585-1.3-.277-4.789 3.405-7.738 8.008-9.473 11.656-1.24-4.578-.916-8.377.987-11.305C10.35 5.755 19.23 4.365 24.59 4.071 23.437 5.872 22.177 9.174 22.177 15c0 3.12-.83 5.522-2.465 7.14-2.621 2.591-6.88 2.834-9.994 2.584-.517-.045-.966.371-1.006.922-.04.55.348 1.03.864 1.072a24.34 24.34 0 001.98.082c3.171 0 6.87-.663 9.43-3.194 2.034-2.011 3.066-4.906 3.066-8.605 0-9.099 3.215-11.096 3.231-11.105.39-.209.595-.677.492-1.129z" fill="#fff"/></g><defs><clipPath id="clip0"><path fill="#fff" d="M0 0h30v32H0z"/></clipPath></defs></svg>
